static/cards/FrenchDeck/cyberwave/card_hearts_06.svg

<svg xmlns="http://www.w3.org/2000/svg" width="822" height="1122" fill="none" viewBox="0 0 822 1122"><rect width="822" height="1122" fill="#1a0033" rx="20"/><g fill="#b366ff" clip-path="url(#a)"><path d="M120.57 160.92q-14.976 0-24.192-9.216-9.088-9.216-9.088-29.824 0-19.456 5.248-30.976 5.248-11.648 13.312-16.256t17.408-4.608q7.168 0 12.928 1.536 5.888 1.536 9.856 4.224.768.512.896.896t-.256 1.152l-1.664 2.816q-.384.768-.896.768-.256 0-.896-.384-8.064-5.12-20.096-5.12t-19.456 8.96q-7.296 8.832-9.088 25.344 4.352-6.144 11.264-9.088t16.64-2.944q9.344 0 16.64 3.456t11.392 10.24q4.224 6.656 4.224 16 0 16.256-9.088 24.704-8.96 8.32-25.088 8.32m0-5.888q27.52 0 27.52-27.136 0-11.904-7.04-17.792-6.912-5.888-19.712-5.888-6.016 0-12.416 2.688-6.272 2.56-10.496 7.68t-4.224 12.16q0 14.208 7.424 21.248t18.944 7.04M120.798 218.497c-10.18-10.18-26.685-10.18-36.865 0s-10.18 26.685 0 36.865l33.179 33.179a5.213 5.213 0 0 0 7.373 0l33.179-33.179-.004-.003c9.814-10.207 9.692-26.436-.365-36.493s-26.287-10.179-36.493-.365zM693.43 957.08q14.976 0 24.192 9.216 9.088 9.216 9.088 29.824c0 12.97-1.749 23.3-5.248 30.98-3.499 7.76-7.936 13.18-13.312 16.25s-11.179 4.61-17.408 4.61c-4.779 0-9.088-.51-12.928-1.54-3.925-1.02-7.211-2.43-9.856-4.22q-.768-.51-.896-.9c-.085-.25 0-.64.256-1.15l1.664-2.81c.256-.52.555-.77.896-.77.171 0 .469.13.896.38 5.376 3.42 12.075 5.12 20.096 5.12s14.507-2.98 19.456-8.96c4.864-5.89 7.893-14.33 9.088-25.34q-4.352 6.135-11.264 9.09-6.912 2.94-16.64 2.94c-6.229 0-11.776-1.15-16.64-3.46-4.864-2.3-8.661-5.71-11.392-10.24-2.816-4.43-4.224-9.767-4.224-15.996q0-16.256 9.088-24.704 8.96-8.32 25.088-8.32m0 5.888q-27.52 0-27.52 27.136 0 11.902 7.04 17.796 6.912 5.88 19.712 5.88c4.011 0 8.149-.89 12.416-2.68q6.272-2.565 10.496-7.68c2.816-3.42 4.224-7.471 4.224-12.164q0-14.208-7.424-21.248t-18.944-7.04M693.202 899.503c10.18 10.18 26.685 10.18 36.865 0s10.18-26.685 0-36.865l-33.179-33.179a5.213 5.213 0 0 0-7.373 0l-33.179 33.179.004.003c-9.814 10.207-9.692 26.436.365 36.493s26.287 10.179 36.493.365z"/></g><path stroke="#b366ff" stroke-width="8" d="M377.261 626.326c8.618-8.618 22.59-8.619 31.209-.001l2.777 2.777 2.827-2.718c8.639-8.306 22.379-8.203 30.892.31 8.514 8.514 8.617 22.254.31 30.893l-.137.143-32.983 32.982a1.213 1.213 0 0 1-1.716.001l-33.179-33.179c-8.618-8.618-8.618-22.59 0-31.208ZM545.261 626.326c8.618-8.618 22.59-8.619 31.209-.001l2.777 2.777 2.827-2.718c8.639-8.306 22.379-8.203 30.892.31 8.514 8.514 8.617 22.254.31 30.893l-.137.143-32.983 32.982a1.213 1.213 0 0 1-1.716.001l-33.179-33.179c-8.618-8.618-8.618-22.59 0-31.208ZM209.261 626.326c8.618-8.618 22.59-8.619 31.209-.001l2.777 2.777 2.827-2.718c8.639-8.306 22.379-8.203 30.892.31 8.514 8.514 8.617 22.254.31 30.893l-.137.143-32.983 32.982a1.213 1.213 0 0 1-1.716.001l-33.179-33.179c-8.618-8.618-8.618-22.59 0-31.208ZM545.261 464.326c8.618-8.618 22.59-8.619 31.209-.001l2.777 2.777 2.827-2.718c8.639-8.306 22.379-8.203 30.892.31 8.514 8.514 8.617 22.254.31 30.893l-.137.143-32.983 32.982a1.213 1.213 0 0 1-1.716.001l-33.179-33.179c-8.618-8.618-8.618-22.59 0-31.208ZM209.261 464.326c8.618-8.618 22.59-8.619 31.209-.001l2.777 2.777 2.827-2.718c8.639-8.306 22.379-8.203 30.892.31 8.514 8.514 8.617 22.254.31 30.893l-.137.143-32.983 32.982a1.213 1.213 0 0 1-1.716.001l-33.179-33.179c-8.618-8.618-8.618-22.59 0-31.208ZM377.261 464.326c8.618-8.618 22.59-8.619 31.209-.001l2.777 2.777 2.827-2.718c8.639-8.306 22.379-8.203 30.892.31 8.514 8.514 8.617 22.254.31 30.893l-.137.143-32.983 32.982a1.213 1.213 0 0 1-1.716.001l-33.179-33.179c-8.618-8.618-8.618-22.59 0-31.208Z"/><defs><clipPath id="a"><path fill="#fff" d="M46 48h722v1022H46z"/></clipPath></defs></svg>

<svg width="822" height="1122" viewBox="0 0 822 1122" fill="none" xmlns="http://www.w3.org/2000/svg">
<rect width="822" height="1122" rx="20" fill="#1A0033"/>
<g clip-path="url(#clip0_31_1320)">
<path d="M120.57 160.92C110.586 160.92 102.522 157.848 96.378 151.704C90.3193 145.56 87.29 135.619 87.29 121.88C87.29 108.909 89.0393 98.584 92.538 90.904C96.0367 83.1387 100.474 77.72 105.85 74.648C111.226 71.576 117.029 70.04 123.258 70.04C128.037 70.04 132.346 70.552 136.186 71.576C140.111 72.6 143.397 74.008 146.042 75.8C146.554 76.1413 146.853 76.44 146.938 76.696C147.023 76.952 146.938 77.336 146.682 77.848L145.018 80.664C144.762 81.176 144.463 81.432 144.122 81.432C143.951 81.432 143.653 81.304 143.226 81.048C137.85 77.6347 131.151 75.928 123.13 75.928C115.109 75.928 108.623 78.9147 103.674 84.888C98.81 90.776 95.7807 99.224 94.586 110.232C97.4873 106.136 101.242 103.107 105.85 101.144C110.458 99.1813 116.005 98.2 122.49 98.2C128.719 98.2 134.266 99.352 139.13 101.656C143.994 103.96 147.791 107.373 150.522 111.896C153.338 116.333 154.746 121.667 154.746 127.896C154.746 138.733 151.717 146.968 145.658 152.6C139.685 158.147 131.322 160.92 120.57 160.92ZM120.57 155.032C138.917 155.032 148.09 145.987 148.09 127.896C148.09 119.96 145.743 114.029 141.05 110.104C136.442 106.179 129.871 104.216 121.338 104.216C117.327 104.216 113.189 105.112 108.922 106.904C104.741 108.611 101.242 111.171 98.426 114.584C95.61 117.997 94.202 122.051 94.202 126.744C94.202 136.216 96.6767 143.299 101.626 147.992C106.575 152.685 112.89 155.032 120.57 155.032Z" fill="#B366FF"/>
<path d="M120.798 218.497C110.618 208.317 94.1128 208.317 83.9327 218.497C73.7526 228.677 73.7526 245.182 83.9327 255.362L117.112 288.541C119.148 290.577 122.449 290.577 124.485 288.541L157.664 255.362L157.66 255.359C167.474 245.152 167.352 228.923 157.295 218.866C147.238 208.809 131.008 208.687 120.802 218.501L120.798 218.497Z" fill="#B366FF"/>
<path d="M693.43 957.08C703.414 957.08 711.478 960.152 717.622 966.296C723.681 972.44 726.71 982.381 726.71 996.12C726.71 1009.09 724.961 1019.42 721.462 1027.1C717.963 1034.86 713.526 1040.28 708.15 1043.35C702.774 1046.42 696.971 1047.96 690.742 1047.96C685.963 1047.96 681.654 1047.45 677.814 1046.42C673.889 1045.4 670.603 1043.99 667.958 1042.2C667.446 1041.86 667.147 1041.56 667.062 1041.3C666.977 1041.05 667.062 1040.66 667.318 1040.15L668.982 1037.34C669.238 1036.82 669.537 1036.57 669.878 1036.57C670.049 1036.57 670.347 1036.7 670.774 1036.95C676.15 1040.37 682.849 1042.07 690.87 1042.07C698.891 1042.07 705.377 1039.09 710.326 1033.11C715.19 1027.22 718.219 1018.78 719.414 1007.77C716.513 1011.86 712.758 1014.89 708.15 1016.86C703.542 1018.82 697.995 1019.8 691.51 1019.8C685.281 1019.8 679.734 1018.65 674.87 1016.34C670.006 1014.04 666.209 1010.63 663.478 1006.1C660.662 1001.67 659.254 996.333 659.254 990.104C659.254 979.267 662.283 971.032 668.342 965.4C674.315 959.853 682.678 957.08 693.43 957.08ZM693.43 962.968C675.083 962.968 665.91 972.013 665.91 990.104C665.91 998.04 668.257 1003.97 672.95 1007.9C677.558 1011.82 684.129 1013.78 692.662 1013.78C696.673 1013.78 700.811 1012.89 705.078 1011.1C709.259 1009.39 712.758 1006.83 715.574 1003.42C718.39 1000 719.798 995.949 719.798 991.256C719.798 981.784 717.323 974.701 712.374 970.008C707.425 965.315 701.11 962.968 693.43 962.968Z" fill="#B366FF"/>
<path d="M693.202 899.503C703.382 909.683 719.887 909.683 730.067 899.503C740.247 889.323 740.247 872.818 730.067 862.638L696.888 829.459C694.852 827.423 691.551 827.423 689.515 829.459L656.336 862.638L656.34 862.641C646.526 872.848 646.648 889.077 656.705 899.134C666.762 909.191 682.992 909.313 693.198 899.499L693.202 899.503Z" fill="#B366FF"/>
</g>
<path d="M377.261 626.326C385.879 617.708 399.851 617.707 408.47 626.325L411.247 629.102L414.074 626.384C422.713 618.078 436.453 618.181 444.966 626.694C453.48 635.208 453.583 648.948 445.276 657.587L445.139 657.73L412.156 690.712C411.682 691.186 410.914 691.187 410.44 690.713L377.261 657.534C368.643 648.916 368.643 634.944 377.261 626.326Z" stroke="#B366FF" stroke-width="8"/>
<path d="M545.261 626.326C553.879 617.708 567.851 617.707 576.47 626.325L579.247 629.102L582.074 626.384C590.713 618.078 604.453 618.181 612.966 626.694C621.48 635.208 621.583 648.948 613.276 657.587L613.139 657.73L580.156 690.712C579.682 691.186 578.914 691.187 578.44 690.713L545.261 657.534C536.643 648.916 536.643 634.944 545.261 626.326Z" stroke="#B366FF" stroke-width="8"/>
<path d="M209.261 626.326C217.879 617.708 231.851 617.707 240.47 626.325L243.247 629.102L246.074 626.384C254.713 618.078 268.453 618.181 276.966 626.694C285.48 635.208 285.583 648.948 277.276 657.587L277.139 657.73L244.156 690.712C243.682 691.186 242.914 691.187 242.44 690.713L209.261 657.534C200.643 648.916 200.643 634.944 209.261 626.326Z" stroke="#B366FF" stroke-width="8"/>
<path d="M545.261 464.326C553.879 455.708 567.851 455.707 576.47 464.325L579.247 467.102L582.074 464.384C590.713 456.078 604.453 456.181 612.966 464.694C621.48 473.208 621.583 486.948 613.276 495.587L613.139 495.73L580.156 528.712C579.682 529.186 578.914 529.187 578.44 528.713L545.261 495.534C536.643 486.916 536.643 472.944 545.261 464.326Z" stroke="#B366FF" stroke-width="8"/>
<path d="M209.261 464.326C217.879 455.708 231.851 455.707 240.47 464.325L243.247 467.102L246.074 464.384C254.713 456.078 268.453 456.181 276.966 464.694C285.48 473.208 285.583 486.948 277.276 495.587L277.139 495.73L244.156 528.712C243.682 529.186 242.914 529.187 242.44 528.713L209.261 495.534C200.643 486.916 200.643 472.944 209.261 464.326Z" stroke="#B366FF" stroke-width="8"/>
<path d="M377.261 464.326C385.879 455.708 399.851 455.707 408.47 464.325L411.247 467.102L414.074 464.384C422.713 456.078 436.453 456.181 444.966 464.694C453.48 473.208 453.583 486.948 445.276 495.587L445.139 495.73L412.156 528.712C411.682 529.186 410.914 529.187 410.44 528.713L377.261 495.534C368.643 486.916 368.643 472.944 377.261 464.326Z" stroke="#B366FF" stroke-width="8"/>
<defs>
<clipPath id="clip0_31_1320">
<rect width="722" height="1022" fill="white" transform="translate(46 48)"/>
</clipPath>
</defs>
</svg>
